outputs/icons/enterprise/barcode_image_scan_round.svg

<svg xmlns="http://www.w3.org/2000/svg" width="1200" height="1200" fill="none"><path fill="#000" d="M150 150h150v-50H100v200h50z"/><path fill="#000" d="M350 200H200v800h150zM1000 200H850v800h150zM400 200h50v649.995h-50zM800 200H700v649.995L800 850zM500 200h150v650H500z"/><path fill="#000" d="M900 150v-50h200v200h-50V150zM1050 1050H900v50h200V900h-50zM100 900h50v149.995h150v50H100z"/></svg>

<svg width="1200" height="1200" viewBox="0 0 1200 1200" fill="none" xmlns="http://www.w3.org/2000/svg"><path d="M150 150H300V100H100V300H150V150Z" fill="black"/><path d="M350 200H200V1000H350V200Z" fill="black"/><path d="M1000 200H850V1000H1000V200Z" fill="black"/><path d="M400 200H450V849.995H400V200Z" fill="black"/><path d="M800 200H700V849.995L800 850V200Z" fill="black"/><path d="M500 200H650V850H500V200Z" fill="black"/><path d="M900 150V100H1100V300H1050V150H900Z" fill="black"/><path d="M1050 1050H900V1100H1100V900H1050V1050Z" fill="black"/><path d="M100 900H150V1049.995H300V1099.995H100V900Z" fill="black"/></svg>
